build/img/sprite/mail.svg

<svg width="21" height="20" viewBox="0 0 21 20" fill="none" xmlns="http://www.w3.org/2000/svg">
<path d="M18.0584 0H2.94568C1.59663 0 0.5 1.441 0.5 3.2137V16.7863C0.5 18.559 1.59663 20 2.94568 20H18.0543C19.4034 20 20.5 18.559 20.5 16.7863V3.21914C20.5041 1.44644 19.4075 0 18.0584 0ZM19.3868 16.7863C19.3868 17.7488 18.7909 18.5318 18.0584 18.5318H2.94568C2.21322 18.5318 1.61732 17.7488 1.61732 16.7863V3.21914C1.61732 2.25666 2.21322 1.47363 2.94568 1.47363H18.0543C18.7868 1.47363 19.3827 2.25666 19.3827 3.21914V16.7863H19.3868Z" fill="#00B2FF"/>
<path d="M12.6133 9.83144L17.5047 4.06744C17.7323 3.79555 17.753 3.33334 17.5461 3.02883C17.3392 2.72975 16.9874 2.70256 16.7557 2.97445L10.0104 10.9299L8.69446 9.38554C8.69032 9.38011 8.68618 9.37467 8.68618 9.36923C8.65721 9.33117 8.62824 9.29854 8.59514 9.26591L3.24029 2.96901C3.00855 2.69713 2.6568 2.72431 2.44989 3.02883C2.24298 3.33334 2.26367 3.79555 2.49541 4.06744L7.44471 9.88038L2.5161 15.9435C2.29264 16.2208 2.28022 16.683 2.49127 16.9821C2.603 17.1343 2.75198 17.2159 2.90096 17.2159C3.03752 17.2159 3.17408 17.1506 3.28167 17.0201L8.28477 10.87L9.64211 12.4633C9.7497 12.5884 9.88212 12.6482 10.0145 12.6482C10.147 12.6482 10.2835 12.5829 10.387 12.4579L11.7816 10.8157L16.7557 17.0256C16.8633 17.1615 17.004 17.2268 17.1405 17.2268C17.2895 17.2268 17.4344 17.1506 17.5461 16.9984C17.7571 16.7047 17.7489 16.2371 17.5254 15.9598L12.6133 9.83144Z" fill="#00B2FF"/>
</svg>

<svg width="21" height="20" fill="none" xmlns="http://www.w3.org/2000/svg"><path d="M18.058 0H2.946C1.596 0 .5 1.441.5 3.214v13.572C.5 18.56 1.597 20 2.946 20h15.108c1.35 0 2.446-1.441 2.446-3.214V3.22C20.504 1.446 19.407 0 18.058 0Zm1.329 16.786c0 .963-.596 1.746-1.329 1.746H2.946c-.733 0-1.329-.783-1.329-1.746V3.22c0-.962.596-1.745 1.329-1.745h15.108c.733 0 1.329.783 1.329 1.745v13.567h.004Z" fill="#00B2FF"/><path d="m12.613 9.831 4.892-5.764c.227-.271.248-.734.041-1.038-.207-.3-.559-.326-.79-.055L10.01 10.93 8.694 9.386c-.004-.006-.008-.011-.008-.017a.946.946 0 0 0-.09-.103L3.24 2.969c-.231-.272-.583-.245-.79.06-.207.304-.186.767.045 1.038l4.95 5.813-4.929 6.063c-.223.278-.236.74-.025 1.04.112.151.261.233.41.233a.495.495 0 0 0 .38-.196l5.004-6.15 1.357 1.593a.49.49 0 0 0 .373.185.49.49 0 0 0 .372-.19l1.395-1.642 4.974 6.21a.493.493 0 0 0 .384.2.505.505 0 0 0 .406-.228c.211-.293.203-.76-.02-1.038L12.612 9.83Z" fill="#00B2FF"/></svg>
